dist/svg/cloud-o.svg

<!-- Generated by Trend Micro Style Portal -->
<svg version="1.1" xmlns="http://www.w3.org/2000/svg" width="16" height="16" viewBox="0 0 16 16">
  <title>cloud-o</title>
  <path fill="rgb(34,34,34)" d="M0 10.361c0.008-1.218 0.837-2.241 1.961-2.543l0.019-0.004c0.233-1.661 1.645-2.926 3.352-2.926 0.007 0 0.014 0 0.022 0h-0.001c0.276 0 0.545 0.034 0.801 0.098l-0.023-0.005c0.705-1.193 1.985-1.981 3.449-1.981 0.003 0 0.006 0 0.010 0h-0c0.010-0 0.023-0 0.035-0 1.848 0 3.4 1.27 3.83 2.985l0.006 0.027c1.479 0.453 2.537 1.805 2.541 3.405v0c-0.022 1.984-1.635 3.583-3.621 3.583-0.010 0-0.021-0-0.031-0l0.002 0h-9.666c-0.006 0-0.012 0-0.019 0-1.463 0-2.65-1.178-2.664-2.637l-0-0.001zM7.232 6.161l-0.274 0.8-0.762-0.369c-0.246-0.126-0.537-0.199-0.845-0.199-1.043 0-1.889 0.845-1.89 1.889v0l0.092 0.941h-0.87c-0.013-0.001-0.029-0.001-0.044-0.001-0.629 0-1.14 0.51-1.14 1.14s0.51 1.14 1.14 1.14c0.015 0 0.031-0 0.046-0.001l-0.002 0h9.666c0.009 0 0.020 0 0.031 0 1.158 0 2.099-0.928 2.12-2.081l0-0.002c-0.012-1.046-0.791-1.907-1.801-2.047l-0.011-0.001-0.577-0.089-0.056-0.581c-0.13-1.241-1.17-2.199-2.434-2.199-0.012 0-0.024 0-0.036 0l0.002-0c-0.004-0-0.009-0-0.014-0-1.076 0-1.993 0.686-2.336 1.644l-0.005 0.017z"></path>
</svg>

<svg width="16" height="16" viewBox="0 0 16 16" fill="rgb(34, 34, 34)" xmlns="http://www.w3.org/2000/svg"><title>cloud-o</title><path d="M0 10.361C0.008 9.143 0.837 8.12 1.961 7.818L1.98 7.814C2.213 6.153 3.625 4.888 5.332 4.888C5.339 4.888 5.346 4.888 5.354 4.888C5.63 4.888 5.898 4.922 6.154 4.986L6.131 4.981C6.836 3.788 8.116 3 9.58 3C9.583 3 9.586 3 9.59 3C9.6 3 9.613 3 9.625 3C11.473 3 13.025 4.27 13.455 5.985L13.461 6.012C14.94 6.465 15.998 7.817 16.002 9.417C15.98 11.401 14.367 13 12.381 13C12.371 13 12.36 13 12.35 13H12.352H2.686C2.68 13 2.674 13 2.667 13C1.204 13 0.017 11.822 0.003 10.363L0 10.361ZM7.232 6.161L6.958 6.961L6.196 6.592C5.95 6.466 5.659 6.393 5.351 6.393C4.308 6.393 3.462 7.238 3.461 8.282L3.553 9.223H2.683C2.67 9.222 2.654 9.222 2.639 9.222C2.01 9.222 1.499 9.732 1.499 10.362C1.499 10.992 2.009 11.502 2.639 11.502C2.654 11.502 2.67 11.502 2.685 11.501H2.683H12.349C12.358 11.501 12.369 11.501 12.38 11.501C13.538 11.501 14.479 10.573 14.5 9.42V9.418C14.488 8.372 13.709 7.511 12.699 7.371L12.688 7.37L12.111 7.281L12.055 6.7C11.925 5.459 10.885 4.501 9.621 4.501C9.609 4.501 9.597 4.501 9.585 4.501H9.587C9.583 4.501 9.578 4.501 9.573 4.501C8.497 4.501 7.58 5.187 7.237 6.145L7.232 6.162V6.161Z" fill="rgb(34, 34, 34)" fill-opacity="1.00"/></svg>
